static/assets/images/tokens/scbtc.svg

<svg width="256" height="256" viewBox="0 0 256 256" fill="none" xmlns="http://www.w3.org/2000/svg">
<path d="M128 256C198.692 256 256 198.692 256 128C256 57.3076 198.692 0 128 0C57.3076 0 0 57.3076 0 128C0 198.692 57.3076 256 128 256Z" fill="url(#paint0_linear_10907_1107)"/>
<path d="M169.938 124.21C175.196 118.06 178.316 110.219 178.316 101.307C178.316 84.7313 166.998 70.7401 151.58 66.819V47.8373H133.758V65.6605H115.934V47.8373H98.1109V65.6605H71.3763V83.4837H89.1995V172.599H71.3763V190.423H98.1109V208.246H115.934V190.423H133.758V208.246H151.58V190.423C171.275 190.423 187.227 174.472 187.227 154.777C187.227 141.854 180.276 130.448 169.938 124.21ZM107.023 83.4837H142.669C152.472 83.4837 160.492 91.5042 160.492 101.307C160.492 111.109 152.472 119.13 142.669 119.13H107.023V83.4837ZM151.58 172.599H107.023V136.953H151.58C161.383 136.953 169.404 144.974 169.404 154.777C169.404 164.58 161.383 172.599 151.58 172.599Z" fill="#FFFCF5"/>
<defs>
<linearGradient id="paint0_linear_10907_1107" x1="4.28507" y1="525.373" x2="265.669" y2="522.472" gradientUnits="userSpaceOnUse">
<stop stop-color="#7A8FD9"/>
<stop offset="1" stop-color="#AC62E4"/>
</linearGradient>
</defs>
</svg>

<svg xmlns="http://www.w3.org/2000/svg" fill="none" viewBox="0 0 256 256"><path fill="url(#paint0_linear_10907_1107)" d="M128 256c70.692 0 128-57.308 128-128S198.692 0 128 0 0 57.308 0 128s57.308 128 128 128"/><path fill="#FFFCF5" d="M169.938 124.21c5.258-6.15 8.378-13.991 8.378-22.903 0-16.576-11.318-30.567-26.736-34.488V47.837h-17.822V65.66h-17.824V47.838H98.111V65.66H71.376v17.824H89.2v89.115H71.377v17.824h26.735v17.823h17.823v-17.823h17.824v17.823h17.822v-17.823c19.695 0 35.647-15.951 35.647-35.646 0-12.923-6.951-24.329-17.289-30.567m-62.915-40.726h35.646c9.803 0 17.823 8.02 17.823 17.823 0 9.802-8.02 17.823-17.823 17.823h-35.646zm44.557 89.115h-44.557v-35.646h44.557c9.803 0 17.824 8.021 17.824 17.824s-8.021 17.822-17.824 17.822"/><defs><linearGradient id="paint0_linear_10907_1107" x1="4.285" x2="265.669" y1="525.373" y2="522.472" gradientUnits="userSpaceOnUse"><stop stop-color="#7A8FD9"/><stop offset="1" stop-color="#AC62E4"/></linearGradient></defs></svg>
